webapp/src/assets/svg/icon-coin-deef-lapis.svg

<svg height="32" viewBox="0 0 32 32" width="32" xmlns="http://www.w3.org/2000/svg" xmlns:xlink="http://www.w3.org/1999/xlink"><defs><path id="a" d="m31.5210875 19.8705962c-2.1372277 8.571413-10.8196524 13.7878601-19.3930655 11.6503817-8.56991276-2.1369783-13.78696841-10.8188902-11.64874067-19.3898032 2.13622752-8.57241298 10.81865227-13.78936003 19.38956507-11.65238172 8.5729131 2.13697831 13.7894687 10.81989022 11.6522411 19.39180322z"/><mask id="b" fill="#fff"><use fill="#fff" fill-rule="evenodd" xlink:href="#a"/></mask></defs><g fill="none"><use fill="#ff996d" xlink:href="#a"/><path d="m18.6326531 20.4592764c1.5555555.6222222 2.4335802 1.2444445 3.0255363 1.8064417l.2373224.2369932c.0370151.0388258.0728559.0773004.1076653.1154019l.1976186.2239561.4306722.5137997.1648944.1843183c.5003456.5329382 1.0824691.8809876 2.5783703.9161481l.2579205.002941c1.4103343 0 2.5720383.2486304 3.4851119.7020596-3.0090135 4.3068665-8.0144421 6.9189906-13.351567 6.8367791.4457702-2.1178659.1208685-3.7501957-1.9094432-5.3657828l-.2241017-.1730559c-4.00000004-3 0-8 5-6zm-6.6326531-8.4592764-.5577371.5517502-.5553221.5393739-2.40431663 2.2902134-.49887431.4820959-.4807627.4736438-.46023621.4657955-.43729483.4585508c-1.48756713 1.5929541-2.50921302 3.0638812-2.59901644 4.5292616l-.00643968.2093149c0 .7710145-.44584751 1.542029-1.33754253 2.3130435l-.21771663.1810645c-2.22622583-3.5538537-3.06064933-7.9729534-1.96545951-12.3629333 1.29548127-5.19860379 4.99840744-9.16319355 9.62395197-11.00201828l.7207599 1.23907345.5512521.94216686.3901322.68031013.2459483.44183838.2327439.43299299.2179174.42458987.2014689.41662903c1.0919891 2.3391775 1.3135767 4.31621017-.663456 6.29324287zm20 3.9998818c-1.9000014 0-2.9977783-.8021199-4.0554446-1.8984802l-.3335555-.3554048-.8572221-.9507378c-.2382222-.2619257-.4871111-.5285923-.7537778-.795259-.6269956-.6269956-1.2539913-.7625869-1.8501761-.8073146l-.6628204-.0335006-.1974328-.0148331-.1936586-.0236545c-.8625295-.1320423-1.6014615-.6484441-2.0959121-3.1206972-.5728716-2.86435786.8233479-4.41598837 3.4366342-5.59492176 4.6706862 2.89642567 7.5672638 8.05332026 7.5633658 13.59480356z" fill="#000" fill-opacity=".80425" mask="url(#b)"/></g></svg>

<?xml version="1.0" encoding="UTF-8"?>
<svg width="32px" height="32px" viewBox="0 0 32 32" version="1.1" xmlns="http://www.w3.org/2000/svg" xmlns:xlink="http://www.w3.org/1999/xlink">
    <title>2F0257CE-A66D-438D-B86E-3BE5543CEC52</title>
    <defs>
        <path d="M31.5210875,19.8705962 C29.3838598,28.4420092 20.7014351,33.6584563 12.128022,31.5209779 C3.55810924,29.3839996 -1.65894641,20.7020877 0.479281328,12.1311747 C2.61550885,3.55876172 11.2979336,-1.65818533 19.8688464,0.478792978 C28.4417595,2.61577129 33.6583151,11.2986832 31.5210875,19.8705962 Z" id="path-1"></path>
    </defs>
    <g id="DeFiChain-App" stroke="none" stroke-width="1" fill="none" fill-rule="evenodd">
        <g id="tokens-dct" transform="translate(-612.000000, -206.000000)">
            <g id="Group-10" transform="translate(56.000000, 38.000000)">
                <g id="Group-8" transform="translate(224.000000, 0.000000)">
                    <g id="Group-2" transform="translate(32.000000, 144.000000)">
                        <g id="icon-coin-bitcoin-lapis" transform="translate(300.000000, 24.000000)">
                            <mask id="mask-2" fill="white">
                                <use xlink:href="#path-1"></use>
                            </mask>
                            <use id="Path" fill="#FF996D" fill-rule="nonzero" xlink:href="#path-1"></use>
                            <path d="M18.6326531,20.4592764 C20.1882086,21.0814986 21.0662333,21.7037209 21.6581894,22.2657181 L21.8955118,22.5027113 C21.9325269,22.5415371 21.9683677,22.5800117 22.0031771,22.6181132 L22.2007957,22.8420693 L22.2007957,22.8420693 L22.6314679,23.355869 L22.6314679,23.355869 L22.7963623,23.5401873 C23.2967079,24.0731255 23.8788314,24.4211749 25.3747326,24.4563354 L25.6326531,24.4592764 C27.0429874,24.4592764 28.2046914,24.7079068 29.117765,25.161336 C26.1087515,29.4682025 21.1033229,32.0803266 15.766198,31.9981151 C16.2119682,29.8802492 15.8870665,28.2479194 13.8567548,26.6323323 L13.6326531,26.4592764 C9.63265306,23.4592764 13.6326531,18.4592764 18.6326531,20.4592764 Z M12,12 L11.4422629,12.5517502 L11.4422629,12.5517502 L10.8869408,13.0911241 L10.8869408,13.0911241 L8.48262417,15.3813375 L8.48262417,15.3813375 L7.98374986,15.8634334 L7.98374986,15.8634334 L7.50298716,16.3370772 L7.50298716,16.3370772 L7.04275095,16.8028727 L7.04275095,16.8028727 L6.60545612,17.2614235 C5.11788899,18.8543776 4.0962431,20.3253047 4.00643968,21.7906851 L4,22 C4,22.7710145 3.55415249,23.542029 2.66245747,24.3130435 L2.44474084,24.494108 C0.218515006,20.9402543 -0.615908488,16.5211546 0.479281328,12.1311747 C1.7747626,6.93257091 5.47768877,2.96798115 10.1032333,1.12915642 L10.8239932,2.36822987 L10.8239932,2.36822987 L11.3752453,3.31039673 L11.3752453,3.31039673 L11.7653775,3.99070686 L11.7653775,3.99070686 L12.0113258,4.43254524 L12.0113258,4.43254524 L12.2440697,4.86553823 L12.2440697,4.86553823 L12.4619871,5.2901281 L12.4619871,5.2901281 L12.663456,5.70675713 C13.7554451,8.04593463 13.9770327,10.0229673 12,12 Z M32,15.9998818 C30.0999986,15.9998818 29.0022217,15.1977619 27.9445554,14.1014016 L27.6109999,13.7459968 L27.6109999,13.7459968 L26.7537778,12.795259 C26.5155556,12.5333333 26.2666667,12.2666667 26,12 C25.3730044,11.3730044 24.7460087,11.2374131 24.1498239,11.1926854 L23.4870035,11.1591848 L23.4870035,11.1591848 L23.2895707,11.1443517 L23.2895707,11.1443517 L23.0959121,11.1206972 C22.2333826,10.9886549 21.4944506,10.4722531 21,8 C20.4271284,5.13564214 21.8233479,3.58401163 24.4366342,2.40507824 C29.1073204,5.30150391 32.003898,10.4583985 32,15.9998818 Z" id="Shape" fill-opacity="0.804250437" fill="#000000" fill-rule="nonzero" mask="url(#mask-2)"></path>
                        </g>
                    </g>
                </g>
            </g>
        </g>
    </g>
</svg>
